packages/ui/src/assets/coolness.svg

<svg width="50" height="22" viewBox="0 0 50 22" fill="none" xmlns="http://www.w3.org/2000/svg">
<path d="M24.6377 11.4052C25.3966 11.2906 26.3997 11.1439 26.9726 14.0223C27.3471 15.9039 28.7774 15.7754 29.6168 16.9711C31.3138 19.3887 34.8067 21.0279 37.9828 21.0279C43.0647 21.0279 47.1842 16.9083 47.1842 11.8265L47.2615 8.2092L48.6564 8.24608V5.20793C48.6564 5.20793 34.7205 -6.70147 26.9556 9.12492H24.7611H24.4214H22.2269C14.4619 -6.70147 0.526039 5.20793 0.526039 5.20793V8.24608L1.92097 8.2092L1.99826 11.8265C1.99826 16.9083 6.11783 21.0279 11.1997 21.0279C14.3757 21.0279 17.9122 19.4187 19.5657 16.9711" fill="#FFE8FF"/>
<path d="M24.6377 11.4052C25.3966 11.2906 26.3997 11.1439 26.9726 14.0223C27.3471 15.9039 28.7774 15.7754 29.6168 16.9711C31.3138 19.3887 34.8067 21.0279 37.9828 21.0279C43.0647 21.0279 47.1842 16.9083 47.1842 11.8265L47.2615 8.2092L48.6564 8.24608V5.20793C48.6564 5.20793 34.7205 -6.70147 26.9556 9.12492H24.7611H24.4214H22.2269C14.4619 -6.70147 0.526039 5.20793 0.526039 5.20793V8.24608L1.92097 8.2092L1.99826 11.8265C1.99826 16.9083 6.11783 21.0279 11.1997 21.0279C14.3757 21.0279 17.9122 19.4187 19.5657 16.9711" stroke="#FFE8FF" stroke-miterlimit="10"/>
<path d="M24.6377 11.4053C25.3966 11.2906 26.3997 11.1439 26.9726 14.0223C27.3471 15.9039 28.7774 15.7754 29.6168 16.9711C31.3138 19.3887 34.8067 21.0279 37.9828 21.0279" fill="#FFE8FF"/>
<path d="M24.6377 11.4053C25.3966 11.2906 26.3997 11.1439 26.9726 14.0223C27.3471 15.9039 28.7774 15.7754 29.6168 16.9711C31.3138 19.3887 34.8067 21.0279 37.9828 21.0279" stroke="#FFE8FF" stroke-miterlimit="10"/>
<path d="M11.4415 20.7909C14.6176 20.7909 18.1106 19.1517 19.8076 16.7341C20.6469 15.5383 21.4836 15.7201 22.5133 14.0468C22.7272 13.6992 19.84 10.4379 24.7867 11.1682" fill="#FFE8FF"/>
<path d="M11.4415 20.7909C14.6176 20.7909 18.1106 19.1517 19.8076 16.7341C20.6469 15.5383 21.4836 15.7201 22.5133 14.0468C22.7272 13.6992 19.84 10.4379 24.7867 11.1682" stroke="#FFE8FF" stroke-miterlimit="10"/>
<path d="M19.5658 16.9711C17.9122 19.4187 14.3758 21.0279 11.1997 21.0279C6.11791 21.0279 1.99833 16.9083 1.99833 11.8265L1.92104 8.2092L0.526112 8.24608V5.20793C0.526112 5.20793 14.462 -6.70147 22.227 9.12492H24.4215H24.7612H26.9557C34.7206 -6.70147 48.6565 5.20793 48.6565 5.20793V8.24608L47.2616 8.2092L47.1843 11.8265C47.1843 16.9083 43.0647 21.0279 37.9829 21.0279C34.8068 21.0279 31.2704 19.4187 29.6169 16.9711" stroke="#FFE8FF" stroke-miterlimit="10" stroke-linecap="round" stroke-linejoin="round"/>
<path d="M22.5559 14.0224C22.5559 12.8027 23.5446 11.814 24.7643 11.814C25.9839 11.814 26.9726 12.8027 26.9726 14.0224" stroke="#FFE8FF" stroke-miterlimit="10" stroke-linecap="round" stroke-linejoin="round"/>
<path d="M11.5182 18.0204C15.4128 18.0204 18.57 14.8632 18.57 10.9686C18.57 7.07401 15.4128 3.91681 11.5182 3.91681C7.62364 3.91681 4.46644 7.07401 4.46644 10.9686C4.46644 14.8632 7.62364 18.0204 11.5182 18.0204Z" stroke="#FFE8FF" stroke-miterlimit="10" stroke-linecap="round" stroke-linejoin="round"/>
<path d="M37.6643 18.0204C41.5589 18.0204 44.7161 14.8632 44.7161 10.9686C44.7161 7.07401 41.5589 3.91681 37.6643 3.91681C33.7697 3.91681 30.6125 7.07401 30.6125 10.9686C30.6125 14.8632 33.7697 18.0204 37.6643 18.0204Z" stroke="#FFE8FF" stroke-miterlimit="10" stroke-linecap="round" stroke-linejoin="round"/>
</svg>

<svg width="50" height="22" fill="none" xmlns="http://www.w3.org/2000/svg"><path d="M24.638 11.405c.759-.114 1.762-.261 2.335 2.617.374 1.882 1.804 1.753 2.644 2.95 1.697 2.417 5.19 4.056 8.366 4.056a9.201 9.201 0 0 0 9.201-9.201l.078-3.618 1.394.037V5.208s-13.935-11.91-21.7 3.917H22.227C14.462-6.701.526 5.208.526 5.208v3.038l1.395-.037.077 3.617a9.201 9.201 0 0 0 9.202 9.202c3.176 0 6.712-1.61 8.366-4.057" fill="#FFE8FF"/><path d="M24.638 11.405c.759-.114 1.762-.261 2.335 2.617.374 1.882 1.804 1.753 2.644 2.95 1.697 2.417 5.19 4.056 8.366 4.056a9.201 9.201 0 0 0 9.201-9.201l.078-3.618 1.394.037V5.208s-13.935-11.91-21.7 3.917H22.227C14.462-6.701.526 5.208.526 5.208v3.038l1.395-.037.077 3.617a9.201 9.201 0 0 0 9.202 9.202c3.176 0 6.712-1.61 8.366-4.057" stroke="#FFE8FF" stroke-miterlimit="10"/><path d="M24.638 11.405c.759-.114 1.762-.261 2.335 2.617.374 1.882 1.804 1.753 2.644 2.95 1.697 2.417 5.19 4.056 8.366 4.056" fill="#FFE8FF"/><path d="M24.638 11.405c.759-.114 1.762-.261 2.335 2.617.374 1.882 1.804 1.753 2.644 2.95 1.697 2.417 5.19 4.056 8.366 4.056" stroke="#FFE8FF" stroke-miterlimit="10"/><path d="M11.441 20.79c3.177 0 6.67-1.638 8.367-4.056.839-1.196 1.676-1.014 2.705-2.687.214-.348-2.673-3.61 2.274-2.879" fill="#FFE8FF"/><path d="M11.441 20.79c3.177 0 6.67-1.638 8.367-4.056.839-1.196 1.676-1.014 2.705-2.687.214-.348-2.673-3.61 2.274-2.879" stroke="#FFE8FF" stroke-miterlimit="10"/><path d="M19.566 16.971c-1.654 2.448-5.19 4.057-8.366 4.057a9.201 9.201 0 0 1-9.202-9.201l-.077-3.618-1.395.037V5.208s13.936-11.91 21.701 3.917H26.956c7.765-15.826 21.7-3.917 21.7-3.917v3.038l-1.394-.037-.078 3.617a9.201 9.201 0 0 1-9.201 9.202c-3.176 0-6.713-1.61-8.366-4.057" stroke="#FFE8FF" stroke-miterlimit="10" stroke-linecap="round" stroke-linejoin="round"/><path d="M22.556 14.022a2.208 2.208 0 1 1 4.417 0M11.518 18.02a7.052 7.052 0 1 0 0-14.103 7.052 7.052 0 0 0 0 14.103ZM37.664 18.02a7.052 7.052 0 1 0 0-14.103 7.052 7.052 0 0 0 0 14.103Z" stroke="#FFE8FF" stroke-miterlimit="10" stroke-linecap="round" stroke-linejoin="round"/></svg>
